X: 1
T: O'Beirne's
M: 4/4
L: 1/8
R: hornpipe
K: Dmaj
|:A2 | dcdf ecAF | GFGB AFDf | g2(3fgf edcd | (3efe(3dcB A2FA |
dcdf ecAF | GFGB AFDA, | D2dB AGFE | (3DED CE D2 :|
|: D2 | e3f g3a | (3bag(3agf gfef | gafg efde | cdBc a2(3ABc |
dcdf ecAF | GFGB AFDA, | D2dB AGFE | (3DED CE D2 :|
